X:1
T:Amour d'automne (Autumn Loves)
T:Cécile Chaminade
T:Armand Silvestre (English Version by Dr. Th. Baker)
T:Amour d'automne
T:Autumn Loves (Soprano or Tenor)
T:OpenScore (CC0)
T:OpenScore (CC0)
T:OpenScore (CC0)
T:OpenScore (CC0)
T:OpenScore (CC0)
T:OpenScore (CC0)
T:OpenScore (CC0)
T:OpenScore (CC0)
C:Cécile Chaminade
Z:Armand Silvestre
Z:OpenScore (CC0)
%%score ( 1 2 ) { ( 3 4 ) | ( 5 6 ) }
L:1/8
Q:1/4=72
M:2/4
K:F
V:1 treble nm="Voice"
V:2 treble 
V:3 treble nm="Piano"
V:4 treble 
V:5 bass 
V:6 bass 
V:1
"^Allegretto ben moderato" z2 | z4 | z4 | z4 | z2!mf! F c | c2({Bc)} B/ A/ B/ d/ | %6
w: ||||Ar- id|Win- ter has sought in|
w: ||||L'âpre hi-|ver a pas- sé sur|
 c2- c/ F/ (A/c/) | B A (G B/) B/ | (3(A/B/A/(3G/A/G/) F2 | z2!mf! F c | c2{Bc} B/ A/ B/ d/ | %11
w: vain _ Of our *|loves the fond- ness to|les- * * * * * sen.|The new|year A\- pril- ward doth|
w: nous _ Sans tou- *|cher à no- tre ten-|dres- * * * * * se.|L'an nou-|veau vers A- vril s'em-|
!<(! c2 c d!<)! |!>(! _e/ c/ _A/ _E/!>)! F!p! (3(B/c/B/) | _A2 z2 | z4 | z2 z!mf! (C/ C/ | %16
w: hast- en And|finds me at your feet a- * *|gain.||May your|
w: |me re- trou- ve‿à vos ge- * *|noux.||Que _|
 d) d/ d/ d d/ d/ | C3 C/ C/ | d d/ d/ d3/2 d/ |!<(! e3!<)! c | %20
w: Beau- ty no won- der- ment|* That so|loy- al my vows yet|cling, My|
w: vo- tre beau- té ne s'é-|* Si mes|vœux sont res- tés cons\-|tants, Ma\-|
[Q:1/4=68]"^poco rit." (f c)!p!{AB} A/ G/[Q:1/4=64] A/ B/ | %21
w: la\- dy, 'tis the time of|
w: da- me, voi- ci le prin\-|
[Q:1/4=60]!<(! c2-!<)! !breath!c/ c/ B/ A/ | d/ B/ A/ G/!p! (e2 |[Q:1/4=72]"^a Tempo"{/f)} f2 z2 | %24
w: Spring, _ It was in|Au- tumn that we fell       in|love.|
w: temps, _ Nous  nous  ai-|mâ- mes en au- tom-|ne.|
 z4 | z4 | z4 | z2!mf! F c | c2{Bc} B/ A/ B/ d/ | c2- c/ F/ (A/c/) | B A G B/ B/ | %31
w: |||Then no|more ros- es met our|eyes, _ And e'er *|ear- lier dark- en'd the|
w: |||Les ro-|siers n'av- aient plus de|fleurs _ Et les *|soirs hâ- taient leur ve-|
 (3(A/B/A/(3G/A/G/) F2 | z2 F F/ c/ | c c{Bc} (B/A/) (B/d/) |!<(! c2 c d/!<)! d/ | %35
w: e- * * * * * ven,|The swal- lows|'neath our gloom- * y _|heav- en Flew a-|
w: nu- * * * * * e.|Les hi- ron-|del- les sous _ la _|nu- e S'en- fuy-|
!>(! (_e/c/) _A/ _E/ F!>)!!p! (3(B/c/B/) | _A2 z2 | z4 | z2 z/!f! C/ C/ C/ | d3/2 d/ d3/2 d/ | %40
w: way * to more ge- nial _ _|skies.||The vine- yards|all their pow'r did|
w: aient * vers des cieux meil- * *|leurs.||Les vi- gne-|rons fêt- aient la|
 C3 C/ C/ | d3/2 d/ d d/ d/ |!<(! e3!<)![Q:1/4=70]"^poco rit." c | %43
w: * And our|hearts to heav- en took|wing, My|
w: ton- Et nos|cœurs é- taient pal- pi-|tants. Ma-|
!f![Q:1/4=68] (f!mp![Q:1/4=66] c)!p![Q:1/4=64]{AB} A/ G/[Q:1/4=62] A/[Q:1/4=60] B/ | %44
w: la- dy, 'tis the time of|
w: da- me, voi- ci le prin-|
!<(! c2-!<)! !breath!c/ c/ B/ A/ | d/ B/ A/ G/ (e2 |[Q:1/4=72]"^a Tempo"{/f} f2) z2 | z4 | z4 | %49
w: Spring, _ Will as in|Au\- tumn you re- turn               my|love?|||
w: temps _ M'ai- me- rez-|vous com- me‿en au- tom-|ne?|||
 z4 | z2 z/ F/ F/ c/ | c2{Bc} (B/A/) B/ d/ | c2- c/ (F/A/c/) | B A/ A/ G B/ B/ | %54
w: |A- new the|bush, wea- * ry of|snow, _ Re- * *|joic- es in ros- es full-|
w: |Sur les ro-|siers de _ nei- ge|las _ Re- * *|naît la pa- ru- re des|
 (3(A/B/A/(3G/A/G/) F2 | z2 z/ F/ F/ =c/ | c2{Bc} (B/A/) B/ d/ | c2 c!<(! d | %58
w: bloom- * * * * * ing;|A joy- ous|knell, stern _ Win- ter|doom- ing  Is|
w: ro- * * * * * ses.|Le glas joy-|eux des _ temps mo-|ro- ses Sonne|
 _e/!<)!!>(! c/ _A/ _E/!>)! F (3(B/c/B/) | _A2 z2 | z4 | z2 z!mf! (C | d) d/ d/ d d/ d/ | %63
w: ring- ing on the blue- bells _ _|now.||The|skies their gray garb do *|
w: aux clo- chet- tes des li- * *|las.||Au|lieu d'un ha- bit mo- no-|
 C3!<(! C!<)! |"^cresc." d3/2 d/ d/ d/ d/ d/ |!<(! e3!<)!!f![Q:1/4=70]"^poco rit." c | %66
w: * And|gay ap- par- el o'er them|fling, My|
w: * Le|ciel en por- te d'é- cla\-|tants. Ma-|
!mf![Q:1/4=68] (f!mp![Q:1/4=66] c)!p![Q:1/4=64]{AB} A/ G/[Q:1/4=62] A/ B/ | %67
w: la- dy, 'tis the time of|
w: da- me, voi- ci le prin-|
!<(! c2-!<)! !breath!c/ c/ B/ A/ | d/ B/ A/ G/!<(! (e2 | %69
w: Spring, _ More than in|Au- tumn let us learn          to|
w: temps, _ Ai- mons  nous|donc plus qu'en au- tom-|
[Q:1/4=72]"_a Tempo"[Q:1/4=72]{/f} f2)!<)! z2 | z4 |] %71
w: love!||
w: ne.||
V:2
 x2 | x4 | x4 | x4 | x4 | x4 | x4 | x4 | x4 | x4 | x4 | c3 d | x4 | x4 | x4 | x2 x C | d x x2 | %17
w: |||||||||||||||||
w: |||||||||||pres- se‿Et||||||
w: |||||||||||||||||
 C2- C C/ x/ | x4 | x4 | x4 | x4 | x4 | x4 | x4 | x4 | x4 | x4 | x4 | x4 | x4 | x4 | x4 | x4 | x4 | %35
w: ||||||||||||||||||
w: ton- ne *||||||||||||||||||
w: move _ _||||||||||||||||||
 x4 | x4 | x4 | x4 | x4 | C2 C C/ x/ | x4 | x4 | x4 | x4 | x4 | x4 | x4 | x4 | x4 | x4 | x4 | x4 | %53
w: |||||prove, _ _|||||||||||||
w: |||||* ne *|||||||||||||
w: ||||||||||||||||||
 x4 | x4 | x4 | x4 | x4 | x4 | x4 | x4 | x4 | x2 x x/ x/ | C2- C C | x4 | x4 | x4 | x4 | x4 | x4 | %70
w: ||||||||||move _ _|||||||
w: ||||||||||to- ne *|||||||
w: |||||||||||||||||
 x4 |] %71
w: |
w: |
w: |
V:3
 z/!mf! (c/d/f/ | e/B/ d2- d/e/4d/4 |!>(! c2-) c/(A/B/!>)!d/ | c/F/ A2 G/A/4G/4 | %4
 [A,F]) [A,FA]2 [A,FA] | (!tenuto![CAc].[CAc]) B2 | [FA] [FA]2 [CAc] | ([GB][FA][E-G][DEB]) | %8
 ([CFA][B,EG] [A,F]2) | [cfc'] [cfc']2 [cfc'] | [cfc']2 [db][eg] |!<(! [cfc'] [cfc']2!<)! [d_ad'] | %12
 [_e_a_e']2!p! (F[GB]) | [C_A] [CA]2"_cresc." [_EAc] | [_A_e] [Ae]2 (f/=d/) | [c=eg] [ceg]2 [ceg] | %16
 !>![df] [df]2 [df] | !>![Be] [Be]2 [Be] | !>![dg] [dg]2 [dg] |!<(! !>![^ca]!<)! [ca]2 [Beb] | %20
"^poco rit." [Afa]!p! [A,FA]2 [A,FA] | [CFc] [CFc]2 [CFc] | [DFBc] z!p! !arpeggio![CEBc]2 | %23
"^a Tempo" (!arpeggio!!tenuto![A,FA].[A,FA]) z/!mf! (c/d/f/ | e/B/ d2- d/e/4d/4 | %25
!>(! c2-) c/(A/B/!>)!d/ | c/F/ A2!p! G/A/4G/4 | [A,F]) [A,FA]2 [A,FA] | (!tenuto![CAc].[CAc]) B2 | %29
 [FA] [FA]2 [CAc] | ([GB][FA][E-G][DEB]) | ([CFA][B,EG] [A,F]2) | [cfc'] [cfc']2 [cfc'] | %33
 [cfc']2 [db][eg] |!<(! [cfc'] [cfc']2!<)! [d_ad'] | [_e_a_e']2!p! (F[GB]) | %36
 [C_A] [CA]2"_cresc." [_EAc] | [_A_e] [Ae]2 (f/=d/) | [c=eg]!f! [ceg]2 [ceg] | %39
!mf! !>![df] [df]2 [df] | !>![Be] [Be]2 [Be] | !>![dg] [dg]2 [dg] | %42
!<(! [^ca] [ca]2!<)!"^poco rit." [Beb] |!f! [Afa]!p! [A,FA]2 [A,FA] | [CFc] [CFc]2 [CFc] | %45
 [DFBc] z !arpeggio![CEBc]2 |"^a Tempo" x2 z/!mf! (c/d/f/ | e/B/ d2- d/e/4d/4 | c2-) c/(A/B/d/ | %49
 c/F/ A2!p! G/A/4G/4 | [A,F]) [A,FA]2 [A,FA] | (!tenuto![CAc].[CAc]) B2 | [FA] [FA]2 [CAc] | %53
 ([GB][FA][E-G][DEB]) | ([CFA][B,EG] [A,F]2) | [cfc'] [cfc']2 [cfc'] | [cfc']2 ([db][eg]) | %57
!<(! [cfc'] [Acfc']2 [d_ad']!<)! | [_e_a_e']2!p! (F[GB]) |!<(! [C_A] [CA]2!<)! [_EAc] | %60
 [_A_e] [Ae]2 (f/=d/) | [c=eg] [ceg]2 [ceg] | !>![df] [df]2 [df] | [Be] [Be]2 [Be] | %64
"_cresc." !>![dg] [dg]2 [dg] |!<(! !>![^ca] [ca]2!<)!!f!"^poco rit." [Beb] | %66
 [Afa]!p! [A,FA]2 [A,FA] |"_cresc." [CFc] [CFc]2 [CFc] | !arpeggio![DFBc] z !arpeggio![CEBc]2 | %69
!f!!<(! [A,FA] [FAf]2 [faf'] |!8va(! [f'a'f'']2!<)!!8va)! z2 |] %71
V:4
 z2 | E E2 F | F F2 E | C D2 [B,E] | x4 | x2 (DE) | x4 | x4 | x4 | [FA] [FA]2 [FA] | %10
 [FA][FA] [FG]B | [FA] [FA]2 [_F_A=B] | [_E_Ac]2 _D2 | x4 | x2 x c | x4 | [GB] [GB]2 [GB] | %17
 [CG] [CG]2 [CG] | [EB] [EB]2 [EB] | x4 | x4 | x4 | x4 | x2 z [FA] | E E2 F | F F2 E | C D2 [B,E] | %27
 x4 | x2 (DE) | x4 | x4 | x4 | [FA] [FA]2 [FA] | [FA][FA] [FG]B | [FA] [FA]2 [_F_A=B] | %35
 [_E_Ac]2 _D2 | x4 | x2 x c | x4 | [GB] [GB]2 [GB] | [CG] [CG]2 [CG] | [EB] [EB]2 [EB] | x4 | x4 | %44
 x4 | x4 | (!tenuto![A,FA].[A,FA]) z [FA] | E E2 F | F F2 E | C D2 [B,E] | x4 | x2 (DE) | x4 | x4 | %54
 x4 | [FA] [FA]2 [FA] | [FA][FA] [FG]B | [FA] F2 [_F_A=B] | [_E_Ac]2 _D2 | x4 | x2 x c | x4 | %62
 [GB] [GB]2 [GB] | [CG] [CG]2 [CG] | [EB] [EB]2 [EB] | x4 | x4 | x4 | x4 | x4 | %70
!8va(! x2!8va)! x2 |] %71
V:5
 z2 | !arpeggio![C,G,] [C,G,]2 [C,^G,] | !arpeggio![C,A,] [C,A,]2 [G,,,G,,] | %3
 [A,,,A,,] [B,,,B,,]2!p! [C,,C,] | [F,,,F,,] [F,,C,]2 [F,,C,] | [F,,C,] [F,,C,]2 [F,,C,] | %6
 [F,,C,] [F,,C,]2 [F,,C,] | [F,,C,] [F,,C,]2 [F,,C,] | [F,,C,] [F,,C,]2 [F,,,F,,]- | [F,,,F,,]4 | %10
 x4 | x4 | x2 [_E,,_E,]2 | [_A,,,_A,,] [A,,,A,,]2 [A,,,A,,] | [C_E] [CE]2 [=DF] | %15
 [C,,C,] [C,,C,]2 [C,,C,] | x4 | x4 | x4 | [A,E]"^colla voce" [A,E]2 [G,=C] | %20
 [F,,,F,,] [F,,C,F,]2 [F,,C,F,] | [A,,,A,,] [A,,,A,,]2 A,, | G,, z [C,,C,]2 | %23
 [F,,,F,,] [F,,C,]2 [F,,C,] | !arpeggio![C,G,] [C,G,]2 [C,^G,] | %25
 !arpeggio![C,A,] [C,A,]2 [G,,,G,,] | [A,,,A,,] [B,,,B,,]2 [C,,C,] | [F,,,F,,] [F,,C,]2 [F,,C,] | %28
 [F,,C,] [F,,C,]2 [F,,C,] | [F,,C,] [F,,C,]2 [F,,C,] | [F,,C,] [F,,C,]2 [F,,C,] | %31
 [F,,C,] [F,,C,]2 [F,,,F,,]- | [F,,,F,,]4 | x4 | x4 | z2 [_E,,_E,]2 | %36
 [_A,,,_A,,] [A,,,A,,]2 [A,,,A,,] | [C_E] [CE]2 [=DF] | [C,,C,] [C,,C,]2 [C,,C,] | x4 | x4 | x4 | %42
 [A,E] [A,E]2 [G,=C] | [F,,,F,,] [F,,C,F,]2 [F,,C,F,] | [A,,,A,,] [A,,,A,,]2 A,, | G,, z [C,,C,]2 | %46
 [F,,,F,,] [F,,C,F,]2 [F,,C,] | !arpeggio![C,G,] [C,G,]2 [C,^G,] | %48
 !arpeggio![C,A,] [C,A,]2 [G,,,G,,] | [A,,,A,,] [B,,,B,,]2 [C,,C,] | [F,,,F,,] [F,,C,]2 [F,,C,] | %51
 [F,,C,] [F,,C,]2 [F,,C,] | [F,,C,] [F,,C,]2 [F,,C,] | [F,,C,] [F,,C,]2 [F,,C,] | %54
 [F,,C,] [F,,C,]2 [F,,,F,,]- | [F,,,F,,]4 | x4 | x4 | x2 [_E,,_E,]2 | %59
 [_A,,,_A,,] [A,,,A,,]2 [A,,,A,,] | [C_E] [CE]2 [=DF] | [C,,C,] [C,,C,]2 [C,,C,] | x4 | x4 | x4 | %65
 [A,E] [A,E]2 [G,=C] | [F,,,F,,] [F,,C,F,]2 [F,,C,F,] | [A,,,A,,] [A,,,A,,]2 A,, | %68
!f! G,, z [C,,C,]2 |!ped! [F,,,F,,] [F,C]2[K:treble] [Fc] | [fc']2!ped-up! z2 |] %71
V:6
 x2 | F,,4 | F,,3 x | x4 | x4 | x4 | x4 | x4 | x4 | x4 | x4 | x4 | x4 | x4 | x4 | x4 | x4 | x4 | %18
 x4 | x4 | x4 | x4 | x4 | x4 | F,,4 | F,,3 x | x4 | x4 | x4 | x4 | x4 | x4 | x4 | x4 | x4 | x4 | %36
 x4 | x4 | x4 | x4 | x4 | x4 | x4 | x4 | x4 | x4 | x4 | !arpeggio!F,,4 | !arpeggio!F,,3 x | x4 | %50
 x4 | x4 | x4 | x4 | x4 | x4 | x4 | x4 | x4 | x4 | x4 | x4 | x4 | x4 | x4 | x4 | x4 | x4 | x4 | %69
 x3[K:treble] x | x4 |] %71

